svgs/sharp-duotone-light/hourglass.svg

<svg xmlns="http://www.w3.org/2000/svg" viewBox="0 0 384 512"><!--! Font Awesome Pro 7.1.0 by @fontawesome - https://fontawesome.com License - https://fontawesome.com/license (Commercial License) Copyright 2025 Fonticons, Inc. --><path opacity=".4" fill="currentColor" d="M64 32l0 104.2 128 99.6 128-99.6 0-104.2-256 0zm0 343.8l0 104.2 256 0 0-104.2-128-99.6-128 99.6z"/><path fill="currentColor" d="M16 0l-16 0 0 32 32 0 0 119.8 6.2 4.8 127.8 99.4-127.8 99.4-6.2 4.8 0 119.8-32 0 0 32 384 0 0-32-32 0 0-119.8-6.2-4.8-127.8-99.4 127.8-99.4 6.2-4.8 0-119.8 32 0 0-32-368 0zM320 32l0 104.2-128 99.6-128-99.6 0-104.2 256 0zM192 276.3l128 99.6 0 104.2-256 0 0-104.2 128-99.6z"/></svg>

<svg xmlns="http://www.w3.org/2000/svg" viewBox="0 0 384 512"><!--! Font Awesome Pro 6.7.2 by @fontawesome - https://fontawesome.com License - https://fontawesome.com/license (Commercial License) Copyright 2024 Fonticons, Inc. --><defs><style>.fa-secondary{opacity:.4}</style></defs><path class="fa-secondary" d="M64 32l0 104.2 128 99.6 128-99.6L320 32 64 32zm0 343.8L64 480l256 0 0-104.2L192 276.3 64 375.8z"/><path class="fa-primary" d="M16 0L0 0 0 32l16 0 16 0 0 112 0 7.8 6.2 4.8L165.9 256 38.2 355.4 32 360.2l0 7.8 0 112-16 0L0 480l0 32 16 0 32 0 288 0 32 0 16 0 0-32-16 0-16 0 0-112 0-7.8-6.2-4.8L218.1 256l127.8-99.4 6.2-4.8 0-7.8 0-112 16 0 16 0 0-32L368 0 336 0 48 0 16 0zM320 32l0 104.2L192 235.7 64 136.2 64 32l256 0zM192 276.3l128 99.6L320 480 64 480l0-104.2 128-99.6z"/></svg>
